X: 29
T: Black Joak
%%VWML:Wrights-3753-p15-0
F: http://www.vwml.org/record/Wrights/3753/p15
B: Daniel Wright "Wright's Compleat Collection of Celebrated Country Dances" 1740 p.15
S: http://library.efdss.org/cgi-bin/dancebooks.cgi Z: 2014 John Chambers <jc:trillian.mit.edu>
M: 6/4
L: 1/4
K: G
%-------------------------
[|\
D>EF G2G | A>BA AGA |\
B>cB BAG | A>BA AGF |\
G3 E3 | D>EF G3 |]|\
B2c d2d | e>fg d2c |
B>cd d>ed | e>fg d>cB |\
c2a B2g | A>BA AGA |\
B>cB BAG | A>BA AGF |\
G3 E3 | D>EF G3 |] %------------------------- %%begintext align
%% Hands round, all four quite round, Hands %% round, all four back again, clap Hands with %% your Partner, clap Sides and Right and Left %% half round, then lead down and lead up, clap %% Hands with your Partner and Right & Left %% quite round at Top.
%%endtext
%-------------------------
%%sep 2 4 300
T: the Rape
%R: jig
B: Daniel Wright "Wright's Compleat Collection of Celebrated Country Dances" 1740 p.15
S: http://library.efdss.org/cgi-bin/dancebooks.cgi
Z: 2014 John Chambers <jc:trillian.mit.edu>
M: 6/4
L: 1/4
K: F
%-------------------------
B |\
AcF G2B | AcE F2c | dfd cfc | BfB A2G |\
AcF G2B | AcE F2a | gfe dc=B | c2C C2 |]
g |\
ecg a2f | eae f2a | bgb agf | ea^c d2f |\
cAF Acf | cFc d2f | cBA Gfe | f2F F2 |]
%-------------------------
%%begintext align
%% First Cu. clap Hands cast off and lead thro'
%% the 3d Cu. cast up in the 2d Cu. Place, the 2d
%% Cu. do the same. 1st Man change Places
%% with the 2d Wo. the Wo. do the same, clap
%% round till they come in their Places, then Right
%% & Left then hand with the 2d & 3d Cu. till done.
%%endtext
%-------------------------
%%sep 2 4 300
